X:1
T:Reina Galop
T:P.W. Newton (1868 - ??)
T:(1903)
C:P.W. Newton (1868 - ??)
%%score ( 1 2 3 )
L:1/8
Q:1/4=80
M:2/4
K:G
V:1 treble-8 nm="Guitare classique"
V:2 treble-8 
V:3 treble-8 
V:1
"_" BG G3/2 d/ | cA AB | cd ef | eG [GB]>c | BG G>d | cA AB | cd e/d/e/f/ | gg g z/ d/ | BG G>d | %9
 cA AB | cd ef | eG [GB]>c | BG G>d | dc c[G^c] | d[Bg] [cg]/f/[ce]/f/ | [Bg]2 [GBg]2!fine! || %16
[K:D] !4!gc !2!f>e | ed d>e | dc c>d | B^G A2 | gc f>e | ed d>e | B^G/c/ d/B/c/d/ | %23
 e/^d/e/d/ e/d/e/f/ | !4!g/!1!A/!2!c/g/ f>e | ed d>e | dc c>d | B^G A2 | g/A/c/g/ f>e | ed d^d | %30
 e/f/g/e/ [GB][Gc] |[Q:1/4=80] [Fd]2[Q:1/4=70] !arpeggio![A=c]2!D.C.! || %32
V:2
 G,D D2 | DA CB, | A,A D[Ac] | G,D D2 | G,D D2 | DA CB, | A,A D2 | G,[GB] [G,GB] z | G,D D2 | %9
 DA CB, | A,A D[Ac] | G,D D2 | G,D D=F | EG _E2 | DG D2 | GD G,2 ||[K:D] A,G A,[Gc] | DA AA, | %18
 A,G GG | ^E2 F2 | A,G A,[Gc] | DA AA, | E,2 E,2 | A,4 | A,2 A,[Gc] | DA AA, | A,G GE | ^E2 F2 | %28
 A,2 A,[Gc] | DA AB, | [E,G]2 A,2 | D2 D2 || %32
V:3
 x4 | x4 | x4 | x4 | x4 | x4 | x4 | x4 | x4 | x4 | x4 | x4 | x4 | x4 | x4 | x4 ||[K:D] x4 | x4 | %18
 x4 | x4 | x4 | x4 | x ^G/ x5/2 | x4 | x4 | x4 | x4 | x4 | x4 | x4 | x4 | x4 || %32

